svg/u1f482_1f3fd_200d_2640.svg

<svg viewBox="0 0 128 128" xmlns="http://www.w3.org/2000/svg">
  <defs>
    <radialGradient id="hairHighlights_1_" cx="64.1244" cy="-47.645036" gradientTransform="matrix(1 0 0 -1.585 0 0)" gradientUnits="userSpaceOnUse" r="36.7592">
      <stop offset="0.8509" stop-color="#6D4C41" stop-opacity="0"/>
      <stop offset="1" stop-color="#6D4C41"/>
    </radialGradient>
    <radialGradient id="SVGID_3_" cx="64.112898" cy="43.679611" gradientTransform="matrix(1 0.009354 -0.0119 1.2671 0 0)" gradientUnits="userSpaceOnUse" r="42.5603">
      <stop offset="0.6328" stop-color="#424242"/>
      <stop offset="1" stop-color="#616161"/>
    </radialGradient>
    <linearGradient id="SVGID_1_" gradientTransform="matrix(1 0 0 -1 0 0)" gradientUnits="userSpaceOnUse" x1="64" x2="64" y1="-96.049" y2="-122.2815">
      <stop offset="0" stop-color="#F44336"/>
      <stop offset="0.9857" stop-color="#CC2623"/>
    </linearGradient>
    <linearGradient id="SVGID_2_" gradientTransform="matrix(1 0 0 -1 0 0)" gradientUnits="userSpaceOnUse" x1="64" x2="64" y1="-124.053" y2="-108.9785">
      <stop offset="0" stop-color="#BFBEBE"/>
      <stop offset="0.7101" stop-color="#FFFFFF"/>
    </linearGradient>
  </defs>
  <path d="M101.07,22.6 C97.22,6.2 74.51,4.59 64.8,4.43 L64.8,4.41 L63.72,4.41 L62.64,4.41 L62.64,4.43 C52.93,4.59 30.76,6.2 26.91,22.6 C24.53,32.72 23.64,60.71 24.12,66.23 C25.09,77.34 29.72,80.87 44.4,85.27 C55.12,88.48 60.48,89.55 62.64,89.88 L62.64,89.97 C62.64,89.97 62.83,90.05 63.72,89.99 C64.61,90.05 64.8,89.97 64.8,89.97 L64.8,89.88 C66.96,89.55 72.8,88.48 83.52,85.27 C98.2,80.87 103.02,77.34 103.99,66.23 C104.47,60.7 103.45,32.72 101.07,22.6 Z" fill="#424242"/>
  <path id="hair" d="M64.45,12.12 C27.07,12.12 27.37,47.45 27.37,48.01 C27.37,70.89 29.08,103.22 38.04,115.93 C41.59,120.97 48.46,121.25 48.46,121.25 L63.93,121.23 L79.4,121.25 C79.4,121.25 86.27,120.97 89.82,115.93 C98.78,103.21 100.49,70.89 100.49,48.01 C100.48,47.45 101.82,12.12 64.45,12.12 Z" fill="#543930"/>
  <path d="M64.14,96.05 L64,96.05 C38.35,96.08 12,103.15 12,121.04 L12,124.05 L13.45,124.05 L14.89,124.05 L113.11,124.05 L114.57,124.05 L116,124.05 L116,121.04 C116,104.18 89.9,96.05 64.14,96.05 Z" fill="url(#SVGID_1_)"/>
  <path d="M66,124.05 L66,106.85 C66,106.3 65.1,105.85 64,105.85 C62.9,105.85 62,106.3 62,106.85 L62,124.05 L66,124.05 Z" fill="url(#SVGID_2_)"/>
  <path d="M77.1,118.29 A3 3 0 1 1 71.1,118.29 A3 3 0 1 1 77.1,118.29 Z" fill="#FFFFFF"/>
  <path d="M46.73,90.83 L46.73,90.83 L46.73,90.83 C45.99,90.83 45.21,90.92 44.39,91.13 C39.27,92.41 28.94,94.47 24.28,94.47 C24.09,94.47 23.9,94.47 23.73,94.46 C23.56,94.45 23.39,94.45 23.22,94.45 C15.8,94.45 13.7,101.57 15.9,104.96 C17.76,107.83 20.76,108.89 24.26,108.89 C32.34,108.89 43.07,103.17 48.4,100.79 C55.39,97.67 52.94,90.83 46.73,90.83 Z" fill="#494949"/>
  <path d="M104.79,94.46 C104.62,94.46 104.45,94.46 104.28,94.47 C104.11,94.48 103.92,94.48 103.73,94.48 C99.07,94.48 88.74,92.42 83.62,91.14 C82.79,90.93 82.01,90.83 81.27,90.83 C75.05,90.83 72.61,97.67 79.61,100.8 C84.95,103.18 95.67,108.9 103.75,108.9 C107.24,108.9 110.25,107.83 112.11,104.97 C114.31,101.58 112.21,94.46 104.79,94.46 Z" fill="#494949"/>
  <path d="M76.27,92.19 C75.76,92.19 75.07,92.92 74.35,93.2 C72.06,94.09 68.75,95.02 66.66,95.43 C65.37,95.68 64.34,96.97 64,98.43 C63.66,96.96 62.64,95.68 61.34,95.43 C59.25,95.03 55.98,93.78 53.64,93.08 C53.16,92.94 52.67,92.76 52.23,92.76 C51.47,92.76 50.89,93.29 50.89,95.44 L50.89,104.65 C50.89,105.42 51.28,106.14 51.92,106.52 C53.08,107.2 58.53,107.55 63.98,107.55 C69.43,107.55 74.89,107.21 76.04,106.52 C76.69,106.14 77.07,105.42 77.07,104.65 L77.07,95.44 C77.1,92.9 76.77,92.19 76.27,92.19 Z" fill="#383535"/>
  <path id="head" d="M63.98,16.09 C46.78,16.09 30.85,28.88 30.85,56 C30.85,77.79 44.34,90.67 56.08,94.83 C58.88,95.82 61.58,96.32 63.98,96.32 C66.36,96.32 69.05,95.83 71.83,94.85 C83.59,90.71 97.11,77.82 97.11,56.01 C97.11,28.88 81.18,16.09 63.98,16.09 Z" fill="#BA8D68"/>
  <path id="hair_1_" d="M99.49,43 C99.49,43 101.48,8.25 63.57,8.25 C25.66,8.25 28.49,44 28.49,44 C28.49,44 30.69,83.09 33.49,89 L36.49,91 C36.49,91 34.66,73.21 34.43,60.71 C34.38,57.79 33.51,46.99 39.46,45.61 C61.29,40.58 73.65,28.72 73.65,28.72 C76.86,35.9 86.91,42.91 90.52,45.58 C93.48,47.77 93.07,56.78 93.01,60.61 L91.49,90 L93.49,89 C96.38,82.98 99.49,43 99.49,43 Z" fill="#543930"/>
  <path id="hairHighlights" d="M64.44,13.67 C27.07,13.67 27.37,48.23 27.37,48.78 C27.37,62.52 28.01,79.74 30.58,93.87 C35.37,93.16 41.01,91.97 44.39,91.13 C45.21,90.92 45.99,90.83 46.72,90.83 L46.73,90.83 C47.4,90.83 48.03,90.91 48.6,91.06 C39.27,84.88 30.85,73.22 30.85,56 C30.85,28.88 46.78,16.09 63.98,16.09 C81.18,16.09 97.11,28.88 97.11,56.01 C97.11,73.25 88.66,84.92 79.31,91.08 C79.91,90.92 80.57,90.83 81.27,90.83 C82.01,90.83 82.79,90.93 83.62,91.14 C86.96,91.97 92.51,93.14 97.27,93.85 C99.84,79.72 100.48,62.51 100.48,48.78 C100.48,48.23 101.82,13.67 64.44,13.67 Z" fill="url(#hairHighlights_1_)"/>
  <path id="nose_1_" d="M67.74,74.06 C67.63,74.02 67.53,73.99 67.42,73.98 L60.43,73.98 C60.32,73.99 60.22,74.02 60.11,74.06 C59.48,74.32 59.13,74.97 59.43,75.67 C59.73,76.37 61.12,78.33 63.92,78.33 C66.72,78.33 68.12,76.37 68.41,75.67 C68.72,74.97 68.38,74.31 67.74,74.06 Z" fill="#99674F"/>
  <path id="mouth_1_" d="M72.25,81.14 C69.1,83.01 58.78,83.01 55.64,81.14 C53.83,80.07 51.99,81.71 52.74,83.35 C53.48,84.96 59.11,88.71 63.97,88.71 C68.83,88.71 74.39,84.96 75.13,83.35 C75.88,81.71 74.05,80.06 72.25,81.14 Z" fill="#5D4037"/>
  <path d="M52.47,64.33 A4.93 5.1 0 1 1 42.61,64.33 A4.93 5.1 0 1 1 52.47,64.33 Z" fill="#49362E"/>
  <path d="M85.35,64.33 A4.93 5.1 0 1 1 75.49,64.33 A4.93 5.1 0 1 1 85.35,64.33 Z" fill="#49362E"/>
  <path id="chin_x5F_strap" d="M93.565,64.556 Q91.669,72.083 87.119,79.583 Q77.813,94.92 64,94.92 Q50.187,94.92 40.881,79.583 Q36.33,72.083 34.435,64.556 Q34.069,63.102 35.524,62.735 Q36.978,62.369 37.345,63.824 Q39.129,70.912 43.446,78.027 Q51.876,91.92 64,91.92 Q76.124,91.92 84.554,78.027 Q88.87,70.912 90.655,63.824 Q91.022,62.369 92.476,62.735 Q93.204,62.919 93.476,63.374 Q93.748,63.829 93.565,64.556 Z" fill="#4E342E"/>
  <path d="M93.565,64.506 Q91.669,72.033 87.119,79.533 Q77.813,94.87 64,94.87 Q50.19,94.87 40.886,79.54 Q36.334,72.041 34.435,64.507 L34.435,64.506 Q34.069,63.052 35.524,62.685 Q36.251,62.502 36.706,62.774 Q37.161,63.046 37.345,63.773 L37.345,63.774 Q39.133,70.871 43.45,77.984 Q51.879,91.87 64,91.87 Q76.124,91.87 84.554,77.977 Q88.87,70.862 90.655,63.774 Q91.022,62.319 92.476,62.685 Q93.204,62.869 93.476,63.324 Q93.748,63.779 93.565,64.506 Z" fill="#4E342E"/>
  <path d="M103.99,66.18 C104.47,60.65 103.45,32.67 101.07,22.55 C97.22,6.15 74.51,4.54 64.8,4.38 L64.8,4.36 L63.72,4.36 L62.64,4.36 L62.64,4.38 C52.93,4.54 30.76,6.15 26.91,22.55 C24.53,32.67 23.64,60.66 24.12,66.18 C24.16,66.65 24.21,67.09 24.26,67.53 C26.16,68.19 28.62,68.48 30.21,68.25 C41.23,66.58 52.42,64.3 63.62,64.3 C75.03,64.3 86.44,66.59 97.68,68.25 C99.16,68.47 101.69,68.24 103.82,67.69 C103.89,67.2 103.94,66.7 103.99,66.18 Z" fill="url(#SVGID_3_)"/>
</svg>

<svg viewBox="0 0 128 128" xmlns="http://www.w3.org/2000/svg">
  <path d="M101.07,22.6C97.22,6.2,74.51,4.59,64.8,4.43V4.41h-1.08h-1.08v0.02C52.93,4.59,30.76,6.2,26.91,22.6 c-2.38,10.12-3.27,38.11-2.79,43.63c0.97,11.11,5.6,14.64,20.28,19.04c10.72,3.21,16.08,4.28,18.24,4.61v0.09 c0,0,0.19,0.08,1.08,0.02c0.89,0.06,1.08-0.02,1.08-0.02v-0.09c2.16-0.33,8-1.4,18.72-4.61c14.68-4.4,19.5-7.93,20.47-19.04 C104.47,60.7,103.45,32.72,101.07,22.6z" fill="#424242"/>
  <g id="hairGroup_1_">
    <path id="hair" d="M64.45,12.12c-37.38,0-37.08,35.33-37.08,35.89c0,22.88,1.71,55.21,10.67,67.92 c3.55,5.04,10.42,5.32,10.42,5.32l15.47-0.02l15.47,0.02c0,0,6.87-0.28,10.42-5.32c8.96-12.72,10.67-45.04,10.67-67.92 C100.48,47.45,101.82,12.12,64.45,12.12z" fill="#543930"/>
  </g>
  <g id="suit_1_">
    <g>
      <linearGradient id="SVGID_1_" gradientTransform="matrix(1 0 0 -1 0 130)" gradientUnits="userSpaceOnUse" x1="64" x2="64" y1="33.951" y2="7.7185">
        <stop offset="0" stop-color="#F44336"/>
        <stop offset="0.9857" stop-color="#CC2623"/>
      </linearGradient>
      <path d="M64.14,96.05H64c-25.65,0.03-52,7.1-52,24.99v3.01h1.45h1.44h98.22h1.46H116v-3.01 C116,104.18,89.9,96.05,64.14,96.05z" fill="url(#SVGID_1_)"/>
      <linearGradient id="SVGID_2_" gradientTransform="matrix(1 0 0 -1 0 130)" gradientUnits="userSpaceOnUse" x1="64" x2="64" y1="5.947" y2="21.0215">
        <stop offset="0" stop-color="#BFBEBE"/>
        <stop offset="0.7101" stop-color="#FFFFFF"/>
      </linearGradient>
      <path d="M66,124.05v-17.2c0-0.55-0.9-1-2-1s-2,0.45-2,1v17.2H66z" fill="url(#SVGID_2_)"/>
      <circle cx="74.1" cy="118.29" fill="#FFFFFF" r="3"/>
    </g>
    <path d="M46.73,90.83L46.73,90.83L46.73,90.83c-0.74,0-1.52,0.09-2.34,0.3c-5.12,1.28-15.45,3.34-20.11,3.34 c-0.19,0-0.38,0-0.55-0.01s-0.34-0.01-0.51-0.01c-7.42,0-9.52,7.12-7.32,10.51c1.86,2.87,4.86,3.93,8.36,3.93 c8.08,0,18.81-5.72,24.14-8.1C55.39,97.67,52.94,90.83,46.73,90.83z" fill="#494949"/>
    <path d="M104.79,94.46c-0.17,0-0.34,0-0.51,0.01c-0.17,0.01-0.36,0.01-0.55,0.01 c-4.66,0-14.99-2.06-20.11-3.34c-0.83-0.21-1.61-0.31-2.35-0.31c-6.22,0-8.66,6.84-1.66,9.97c5.34,2.38,16.06,8.1,24.14,8.1 c3.49,0,6.5-1.07,8.36-3.93C114.31,101.58,112.21,94.46,104.79,94.46z" fill="#494949"/>
    <path d="M76.27,92.19c-0.51,0-1.2,0.73-1.92,1.01c-2.29,0.89-5.6,1.82-7.69,2.23 c-1.29,0.25-2.32,1.54-2.66,3c-0.34-1.47-1.36-2.75-2.66-3c-2.09-0.4-5.36-1.65-7.7-2.35c-0.48-0.14-0.97-0.32-1.41-0.32 c-0.76,0-1.34,0.53-1.34,2.68v9.21c0,0.77,0.39,1.49,1.03,1.87c1.16,0.68,6.61,1.03,12.06,1.03s10.91-0.34,12.06-1.03 c0.65-0.38,1.03-1.1,1.03-1.87v-9.21C77.1,92.9,76.77,92.19,76.27,92.19z" fill="#383535"/>
  </g>
  <path id="head" d="M63.98,16.09c-17.2,0-33.13,12.79-33.13,39.91c0,21.79,13.49,34.67,25.23,38.83 c2.8,0.99,5.5,1.49,7.9,1.49c2.38,0,5.07-0.49,7.85-1.47c11.76-4.14,25.28-17.03,25.28-38.84C97.11,28.88,81.18,16.09,63.98,16.09z" fill="#BA8D68"/>
  <g id="hairGroup">
    <path id="hair_1_" d="M99.49,43c0,0,1.99-34.75-35.92-34.75S28.49,44,28.49,44s2.2,39.09,5,45l3,2 c0,0-1.83-17.79-2.06-30.29c-0.05-2.92-0.92-13.72,5.03-15.1c21.83-5.03,34.19-16.89,34.19-16.89 c3.21,7.18,13.26,14.19,16.87,16.86c2.96,2.19,2.55,11.2,2.49,15.03L91.49,90l2-1C96.38,82.98,99.49,43,99.49,43z" fill="#543930"/>
    <radialGradient id="hairHighlights_1_" cx="64.1244" cy="54.1161" gradientTransform="matrix(1 0 0 -1.585 0 161.2914)" gradientUnits="userSpaceOnUse" r="36.7592">
      <stop offset="0.8509" stop-color="#6D4C41" stop-opacity="0"/>
      <stop offset="1" stop-color="#6D4C41"/>
    </radialGradient>
    <path id="hairHighlights" d="M64.44,13.67c-37.37,0-37.07,34.56-37.07,35.11 c0,13.74,0.64,30.96,3.21,45.09c4.79-0.71,10.43-1.9,13.81-2.74c0.82-0.21,1.6-0.3,2.33-0.3h0.01c0.67,0,1.3,0.08,1.87,0.23 C39.27,84.88,30.85,73.22,30.85,56c0-27.12,15.93-39.91,33.13-39.91s33.13,12.79,33.13,39.92c0,17.24-8.45,28.91-17.8,35.07 c0.6-0.16,1.26-0.25,1.96-0.25c0.74,0,1.52,0.1,2.35,0.31c3.34,0.83,8.89,2,13.65,2.71c2.57-14.13,3.21-31.34,3.21-45.07 C100.48,48.23,101.82,13.67,64.44,13.67z" fill="url(#hairHighlights_1_)"/>
  </g>
  <path id="nose_1_" d="M67.74,74.06c-0.11-0.04-0.21-0.07-0.32-0.08h-6.99c-0.11,0.01-0.21,0.04-0.32,0.08 c-0.63,0.26-0.98,0.91-0.68,1.61c0.3,0.7,1.69,2.66,4.49,2.66c2.8,0,4.2-1.96,4.49-2.66C68.72,74.97,68.38,74.31,67.74,74.06z" fill="#99674F"/>
  <path id="mouth_1_" d="M72.25,81.14c-3.15,1.87-13.47,1.87-16.61,0c-1.81-1.07-3.65,0.57-2.9,2.21 c0.74,1.61,6.37,5.36,11.23,5.36s10.42-3.75,11.16-5.36C75.88,81.71,74.05,80.06,72.25,81.14z" fill="#5D4037"/>
  <g id="eyes_1_">
    <ellipse cx="47.54" cy="64.33" fill="#49362E" rx="4.93" ry="5.1"/>
    <ellipse cx="80.42" cy="64.33" fill="#49362E" rx="4.93" ry="5.1"/>
  </g>
  <path id="chin_x5F_strap" d=" M92.11,64.19c0,0-7.36,29.23-28.11,29.23S35.89,64.19,35.89,64.19" fill="none" stroke="#4E342E" stroke-linecap="round" stroke-linejoin="round" stroke-miterlimit="10" stroke-width="3"/>
  <g id="hat_x5F_front">
    <path d=" M92.11,64.14c0,0-7.36,29.23-28.11,29.23S35.89,64.14,35.89,64.14" fill="none" stroke="#4E342E" stroke-linecap="round" stroke-linejoin="round" stroke-miterlimit="10" stroke-width="3"/>
    <radialGradient id="SVGID_3_" cx="63.593" cy="55.9487" gradientTransform="matrix(1 9.353784e-03 -0.0119 1.2671 0.6659 -15.5413)" gradientUnits="userSpaceOnUse" r="42.5603">
      <stop offset="0.6328" stop-color="#424242"/>
      <stop offset="1" stop-color="#616161"/>
    </radialGradient>
    <path d="M103.99,66.18c0.48-5.53-0.54-33.51-2.92-43.63C97.22,6.15,74.51,4.54,64.8,4.38V4.36h-1.08 h-1.08v0.02c-9.71,0.16-31.88,1.77-35.73,18.17c-2.38,10.12-3.27,38.11-2.79,43.63c0.04,0.47,0.09,0.91,0.14,1.35 c1.9,0.66,4.36,0.95,5.95,0.72c11.02-1.67,22.21-3.95,33.41-3.95c11.41,0,22.82,2.29,34.06,3.95c1.48,0.22,4.01-0.01,6.14-0.56 C103.89,67.2,103.94,66.7,103.99,66.18z" fill="url(#SVGID_3_)"/>
  </g>
</svg>
